!!!OTL: MICH ZIEHTS HINAUS
!!!ARE: Europa, Mitteleuropa, Deutschland
!!!SCT: F0994
!!!YEM: Copyright 1995, estate of Helmut Schaffrath.
**kern
*ICvox
*Ivox
*M2/4
*k[b-e-a-]
*E-:
{8b-
=1
8.g
16f
8g
8b-
=2
8.g
16f
8g}
{8b-
=3
4a-
8g
8f
=4
4g
8r}
{8b-
=5
8.g
16f
8g
8b-
=6
8.g
16f
8g}
{8b-
=7
4dd
8cc
8an
=8
4b-
8r}
{8b-
=9
4ff
8dd
8b-
=10
8.ee-}
{16b-
8g
8b-
=11
4ff
8dd
8b-
=12
4ee-
8r}
{8ee-
=13
8.cc
16cc
8ee-
8cc
=14
8.b-}
{16b-
8ee-
8b-
=15
4b-
8a-
8f
=16
4e-
8r}
{8b-
=17
4ff
8dd
8b-
=18
8.ee-}
{16b-
8g
8b-
=19
4ff
8dd
8b-
=20
4ee-
8r}
{8ee-
=21
8.cc
16cc
8ee-
8cc
=22
8.b-}
{16b-
8ee-
8b-
=23
4b-
8a-
8f
=24
4e-
8r}
==
!!!AGN: Natur - Lied
!!!ONB: ESAC (Essen Associative Code) Database: FINK
!!!AMT: simple duple
!!!AIN: vox
!!!EED: Helmut Schaffrath
!!!EEV: 1.0
*-
